images/clubs.svg

<?xml version="1.0" encoding="iso-8859-1"?>
<!-- Generator: Adobe Illustrator 19.0.0, SVG Export Plug-In . SVG Version: 6.00 Build 0)  -->
<svg version="1.1" id="Layer_1" xmlns="http://www.w3.org/2000/svg" xmlns:xlink="http://www.w3.org/1999/xlink" x="0px" y="0px"
	 viewBox="0 0 511.998 511.998" style="enable-background:new 0 0 511.998 511.998;" xml:space="preserve">
<g>
	<path d="M419.381,199.229c-26.651-12.378-51.541-12.674-74.177-7.186c18.441-21.827,29.058-50.472,27.396-81.642
		C369.438,51,320.017,2.36,260.58,0.087c-66.578-2.542-121.353,50.67-121.353,116.682c0,28.699,10.393,54.937,27.567,75.273
		c-22.636-5.488-47.526-5.192-74.177,7.186c-41.023,19.061-69.569,59.401-70.153,104.628
		c-0.835,65.204,51.757,118.317,116.763,118.317c31.412,0,59.859-12.459,80.842-32.633v34.403c0,16.501-4.303,32.714-12.495,47.041
		l-15.755,27.576c-3.422,5.991,0.907,13.438,7.797,13.438h112.766c6.899,0,11.219-7.446,7.797-13.438l-15.755-27.576
		c-8.183-14.327-12.495-30.54-12.495-47.041V389.54c20.992,20.175,49.439,32.633,80.842,32.633
		c65.006,0,117.607-53.113,116.763-118.317C488.95,258.629,460.403,218.289,419.381,199.229"/>
	<path style="fill:#2A2D33;" d="M423.915,355.877c-13.621,13.805-31.752,21.385-51.142,21.385c-4.961,0-8.982,4.022-8.982,8.982
		c0,4.961,4.022,8.982,8.982,8.982c24.196,0,46.934-9.506,63.927-26.729c16.991-17.2,26.197-40.066,25.888-64.288
		c-0.063-4.96-4.136-8.93-9.096-8.867c-4.96,0.063-8.93,4.136-8.867,9.096C444.872,323.859,437.529,342.095,423.915,355.877z"/>
</g>
<g>
</g>
<g>
</g>
<g>
</g>
<g>
</g>
<g>
</g>
<g>
</g>
<g>
</g>
<g>
</g>
<g>
</g>
<g>
</g>
<g>
</g>
<g>
</g>
<g>
</g>
<g>
</g>
<g>
</g>
</svg>

<svg width="512" height="512" viewBox="0 0 512 512" fill="none" xmlns="http://www.w3.org/2000/svg"><path d="M419.381 199.229C392.73 186.851 367.84 186.555 345.204 192.043C363.645 170.216 374.262 141.571 372.6 110.401C369.438 51 320.017 2.36 260.58 0.087C194.002 -2.455 139.227 50.757 139.227 116.769C139.227 145.468 149.62 171.706 166.794 192.042C144.158 186.554 119.268 186.85 92.617 199.228C51.594 218.289 23.048 258.629 22.464 303.856C21.629 369.06 74.221 422.173 139.227 422.173C170.639 422.173 199.086 409.714 220.069 389.54V423.943C220.069 440.444 215.766 456.657 207.574 470.984L191.819 498.56C188.397 504.551 192.726 511.998 199.616 511.998H312.382C319.281 511.998 323.601 504.552 320.179 498.56L304.424 470.984C296.241 456.657 291.929 440.444 291.929 423.943V389.54C312.921 409.715 341.368 422.173 372.771 422.173C437.777 422.173 490.378 369.06 489.534 303.856C488.95 258.629 460.403 218.289 419.381 199.229Z" fill="black"/></svg>
